code/images/sickIkonca.svg

<?xml version="1.0" encoding="iso-8859-1"?>
<!-- Uploaded to: SVG Repo, www.svgrepo.com, Generator: SVG Repo Mixer Tools -->
<svg fill="#000000" height="800px" width="800px" version="1.1" id="Capa_1" xmlns="http://www.w3.org/2000/svg" xmlns:xlink="http://www.w3.org/1999/xlink" 
	 viewBox="0 0 56 56" xml:space="preserve">
<path d="M28,0C12.561,0,0,12.561,0,28s12.561,28,28,28s28-12.561,28-28S43.439,0,28,0z M40,41H16c-1.104,0-2-0.896-2-2s0.896-2,2-2
	h24c1.104,0,2,0.896,2,2S41.104,41,40,41z M40,30H16c-1.104,0-2-0.896-2-2s0.896-2,2-2h24c1.104,0,2,0.896,2,2S41.104,30,40,30z
	 M40,19H16c-1.104,0-2-0.896-2-2s0.896-2,2-2h24c1.104,0,2,0.896,2,2S41.104,19,40,19z"/>
</svg>

<?xml version="1.0" encoding="UTF-8" standalone="no" ?>
<!DOCTYPE svg PUBLIC "-//W3C//DTD SVG 1.1//EN" "http://www.w3.org/Graphics/SVG/1.1/DTD/svg11.dtd">
<svg xmlns="http://www.w3.org/2000/svg" xmlns:xlink="http://www.w3.org/1999/xlink" version="1.1" width="1080" height="1080" viewBox="0 0 1080 1080" xml:space="preserve">
<desc>Created with Fabric.js 5.2.4</desc>
<defs>
</defs>
<rect x="0" y="0" width="100%" height="100%" fill="transparent"></rect>
<g transform="matrix(1 0 0 1 540 540)" id="a79c02d5-a09e-4be2-aa61-d79a47d2ff4e"  >
<rect style="stroke: none; stroke-width: 1; stroke-dasharray: none; stroke-linecap: butt; stroke-dashoffset: 0; stroke-linejoin: miter; stroke-miterlimit: 4; fill: rgb(255,255,255); fill-rule: nonzero; opacity: 1; visibility: hidden;" vector-effect="non-scaling-stroke"  x="-540" y="-540" rx="0" ry="0" width="1080" height="1080" />
</g>
<g transform="matrix(Infinity NaN NaN Infinity 0 0)" id="48598500-b0c4-428a-9cbc-bedbfaa99716"  >
</g>
<g transform="matrix(10.22 0 0 10.22 540 540)"  >
<g style="" vector-effect="non-scaling-stroke"   >
		<g transform="matrix(1 0 0 1 0 0)"  >
<rect style="stroke: none; stroke-width: 1; stroke-dasharray: none; stroke-linecap: butt; stroke-dashoffset: 0; stroke-linejoin: miter; stroke-miterlimit: 4; fill: rgb(255,255,255); fill-rule: nonzero; opacity: 1; visibility: hidden;" vector-effect="non-scaling-stroke"  x="-540" y="-540" rx="0" ry="0" width="1080" height="1080" />
</g>
		<g transform="matrix(1 0 0 1 0 0)"  >
<path style="stroke: rgb(255,255,255); stroke-width: 0; stroke-dasharray: none; stroke-linecap: butt; stroke-dashoffset: 0; stroke-linejoin: miter; stroke-miterlimit: 4; fill: rgb(255,255,255); fill-rule: nonzero; opacity: 1;" vector-effect="non-scaling-stroke"  transform=" translate(-28, -28)" d="M 28 0 C 12.561 0 0 12.561 0 28 C 0 43.439 12.561 56 28 56 C 43.439 56 56 43.439 56 28 C 56 12.561 43.439 0 28 0 z M 40 41 L 16 41 C 14.896 41 14 40.104 14 39 C 14 37.896 14.896 37 16 37 L 40 37 C 41.104 37 42 37.896 42 39 C 42 40.104 41.104 41 40 41 z M 40 30 L 16 30 C 14.896 30 14 29.104 14 28 C 14 26.896 14.896 26 16 26 L 40 26 C 41.104 26 42 26.896 42 28 C 42 29.104 41.104 30 40 30 z M 40 19 L 16 19 C 14.896 19 14 18.104 14 17 C 14 15.896 14.896 15 16 15 L 40 15 C 41.104 15 42 15.896 42 17 C 42 18.104 41.104 19 40 19 z" stroke-linecap="round" />
</g>
</g>
</g>
</svg>
